mobile/apps/auth/assets/custom-icons/icons/changenow.svg

<svg xmlns="http://www.w3.org/2000/svg" fill="none" viewBox="0 0 500 500"><path fill="#2B2B36" d="M0 92.857C0 41.574 41.574 0 92.857 0h314.286C458.426 0 500 41.574 500 92.857v314.286C500 458.426 458.426 500 407.143 500H92.857C41.574 500 0 458.426 0 407.143V92.857Z"/><path fill="#fff" d="M124.055 188.95a20.485 20.485 0 0 0-7.269-5.577 21.777 21.777 0 0 0-8.478-1.924 24.02 24.02 0 0 0-9.476 1.616 21.08 21.08 0 0 0-7.23 4.751 20.313 20.313 0 0 0-4.566 7.193 27.211 27.211 0 0 0 0 18.196 20.322 20.322 0 0 0 4.565 7.251 20.973 20.973 0 0 0 7.231 4.751 24.037 24.037 0 0 0 9.476 1.615 21.794 21.794 0 0 0 8.478-1.923 20.467 20.467 0 0 0 7.269-5.578l-4.968-3.847a12.993 12.993 0 0 1-4.373 4.059 12.328 12.328 0 0 1-6.406 1.654 15.894 15.894 0 0 1-6.771-1.193 14.775 14.775 0 0 1-5.14-3.443 15.527 15.527 0 0 1-3.223-5.501 21.965 21.965 0 0 1 0-13.752 15.55 15.55 0 0 1 3.222-5.482 14.837 14.837 0 0 1 5.102-3.597 15.93 15.93 0 0 1 6.771-1.192 12.33 12.33 0 0 1 6.407 1.654 13.022 13.022 0 0 1 4.373 4.059l4.968-3.847.038.057Zm14.539 36.834h6.081v-22.158a19.267 19.267 0 0 1 1.918-9.232 14.665 14.665 0 0 1 4.181-4.982 11.214 11.214 0 0 1 4.392-2.097 23.583 23.583 0 0 1 2.609-.307c4.476 0 7.545 1.282 9.207 3.847a20.315 20.315 0 0 1 2.493 11.04v23.889h6.081v-27.428a18.054 18.054 0 0 0-3.952-12.502c-2.672-2.873-6.77-4.309-12.294-4.309a15.95 15.95 0 0 0-4.278.597c-1.427.39-2.804.945-4.104 1.654a16.945 16.945 0 0 0-3.491 2.539 14.164 14.164 0 0 0-2.571 3.231h-.191v-33.583h-6.081v69.801Zm85.355-21.504v3.135a18.29 18.29 0 0 1-.786 5.405 11.728 11.728 0 0 1-6.541 7.424 13.806 13.806 0 0 1-5.754 1.116 16.149 16.149 0 0 1-3.645-.423 10.007 10.007 0 0 1-3.26-1.385 7.262 7.262 0 0 1-2.34-2.501 7.187 7.187 0 0 1-.883-3.654 6.193 6.193 0 0 1 2.264-5.078 14.598 14.598 0 0 1 5.428-2.731 33.171 33.171 0 0 1 6.636-1.116c2.302-.154 4.22-.231 5.755-.231l3.126.039Zm-3.031-4.982c-2.557 0-5.396.122-8.516.366a33.543 33.543 0 0 0-8.746 1.923 16.602 16.602 0 0 0-6.81 4.482 11.853 11.853 0 0 0-2.723 8.27 11.562 11.562 0 0 0 1.247 5.501 12.18 12.18 0 0 0 3.318 3.963 14.06 14.06 0 0 0 4.738 2.404c1.794.526 3.654.792 5.524.788a19.126 19.126 0 0 0 8.88-1.923 16.497 16.497 0 0 0 6.311-6.232h.192c0 1.167.044 2.366.134 3.597.089 1.231.236 2.347.441 3.347h5.754c-.179-1.167-.345-2.661-.498-4.482-.154-1.821-.205-3.533-.154-5.135v-19.234a16.571 16.571 0 0 0-1.285-6.829 13.991 13.991 0 0 0-3.414-4.75 13.643 13.643 0 0 0-5.026-2.809 19.812 19.812 0 0 0-6.022-.923c-8.107 0-14.181 2.09-18.222 6.271l3.683 4.346a18.996 18.996 0 0 1 13.158-5.077c7.365 0 11.048 3.725 11.048 11.175v1.115l-3.012-.154Zm29.27-16.714c.128 1.603.237 3.295.327 5.078.089 1.782.134 3.257.134 4.424v33.698h6.08v-22.158a19.29 19.29 0 0 1 1.918-9.232 14.657 14.657 0 0 1 4.182-4.982 11.208 11.208 0 0 1 4.392-2.097 23.408 23.408 0 0 1 2.57-.365c4.476 0 7.545 1.282 9.207 3.847a20.316 20.316 0 0 1 2.494 11.04v23.947h6.08v-27.428a18.058 18.058 0 0 0-3.951-12.502c-2.647-2.873-6.733-4.309-12.257-4.309a15.942 15.942 0 0 0-4.277.597 19.08 19.08 0 0 0-4.105 1.654 16.99 16.99 0 0 0-3.548 2.481 14.164 14.164 0 0 0-2.571 3.231h-.191v-3.462a26.44 26.44 0 0 0-.231-3.462h-6.253Zm63.854 14.637a16.89 16.89 0 0 1 3.414-5.27 16.511 16.511 0 0 1 5.063-3.597 14.875 14.875 0 0 1 6.311-1.346 16.75 16.75 0 0 1 6.809 1.346 15.581 15.581 0 0 1 5.16 3.597 15.396 15.396 0 0 1 3.222 5.27 18.44 18.44 0 0 1 1.113 6.424 16.852 16.852 0 0 1-1.151 6.828 14.694 14.694 0 0 1-3.549 5.213 16.853 16.853 0 0 1-11.508 4.577c-2.177.02-4.331-.44-6.311-1.346a16.466 16.466 0 0 1-5.063-3.597 16.853 16.853 0 0 1-3.415-5.27 17.185 17.185 0 0 1 0-12.829h-.095Zm-6.867 42.027a26.74 26.74 0 0 0 9.207 6.558 29.501 29.501 0 0 0 11.508 2.116 26.77 26.77 0 0 0 11.777-2.212 19.41 19.41 0 0 0 7.04-5.539 18.518 18.518 0 0 0 3.414-7.29c.563-2.455.859-4.963.882-7.482v-42.815h-6.08v7.193h-.192a19.954 19.954 0 0 0-8.248-6.655 19.406 19.406 0 0 0-4.335-1.288 24.545 24.545 0 0 0-4.104-.366 22.199 22.199 0 0 0-8.785 1.712 20.55 20.55 0 0 0-6.905 4.751 22.55 22.55 0 0 0-4.565 7.117 23 23 0 0 0-1.65 8.77 21.924 21.924 0 0 0 1.745 8.771 21.029 21.029 0 0 0 4.796 6.963 22.334 22.334 0 0 0 7.135 4.578 23.182 23.182 0 0 0 8.785 1.654 22.092 22.092 0 0 0 8.938-1.924 16.605 16.605 0 0 0 7.174-6.27h.192v7.694a24.19 24.19 0 0 1-.883 6.597 14.059 14.059 0 0 1-2.839 5.443 13.58 13.58 0 0 1-5.198 3.655 20.42 20.42 0 0 1-7.825 1.346 20.794 20.794 0 0 1-9.591-2.173 19.421 19.421 0 0 1-6.943-5.771l-4.45 4.867Zm68.399-38.469c.003-1.799.43-3.571 1.246-5.174a15.507 15.507 0 0 1 3.319-4.423 16.074 16.074 0 0 1 4.833-3.097 14.682 14.682 0 0 1 5.755-1.154 13.626 13.626 0 0 1 10.319 3.847 13.854 13.854 0 0 1 3.625 10.001h-29.097Zm35.714 4.982v-2.693a25.057 25.057 0 0 0-1.381-8.347 19.964 19.964 0 0 0-4.008-6.828 19.407 19.407 0 0 0-6.445-4.674 21.05 21.05 0 0 0-8.747-1.751 21.38 21.38 0 0 0-8.554 1.712 21.102 21.102 0 0 0-6.905 4.751 21.893 21.893 0 0 0-4.604 7.194 24.186 24.186 0 0 0-1.649 9.04c-.03 3.096.55 6.168 1.707 9.04a22.491 22.491 0 0 0 4.642 7.193 20.788 20.788 0 0 0 7.039 4.751 22.958 22.958 0 0 0 8.881 1.712 23.78 23.78 0 0 0 9.993-2.116 23.362 23.362 0 0 0 8.516-7.02l-4.699-3.847a16.875 16.875 0 0 1-5.39 5.212 15.313 15.313 0 0 1-8.42 2.27 14.849 14.849 0 0 1-5.985-1.193 15.9 15.9 0 0 1-8.286-8.213 18.537 18.537 0 0 1-1.573-6.097l35.868-.096Z"/><path fill="#00C26F" d="M90.758 341.188h15.459V274.35h.25l42.965 66.838h19.641v-87.149h-15.479v64.742h-.23l-42.198-64.742H90.758v87.149Zm103.001-24.619a41.537 41.537 0 0 0 9.505 14.34 41.388 41.388 0 0 0 14.49 9.241 50.682 50.682 0 0 0 18.471 3.27 51.676 51.676 0 0 0 18.663-3.501 43.71 43.71 0 0 0 14.616-9.425 42.618 42.618 0 0 0 9.59-14.406 48.5 48.5 0 0 0 3.357-18.599 50.126 50.126 0 0 0-3.433-18.965 42.317 42.317 0 0 0-9.591-14.522 40.809 40.809 0 0 0-14.616-9.175 51.551 51.551 0 0 0-18.663-3.019 50.685 50.685 0 0 0-18.471 3.269 41.701 41.701 0 0 0-14.481 9.29 42.67 42.67 0 0 0-9.591 14.58 50.614 50.614 0 0 0-3.222 19.042 48.477 48.477 0 0 0 3.433 18.58h-.057Zm14.922-31.756a30.175 30.175 0 0 1 6.081-9.905 27.918 27.918 0 0 1 9.398-6.655 30.026 30.026 0 0 1 12.257-2.404 30.479 30.479 0 0 1 12.276 2.404 27.804 27.804 0 0 1 9.456 6.655 30.243 30.243 0 0 1 6.08 9.905 34.117 34.117 0 0 1 2.072 12.137 37.61 37.61 0 0 1-2.148 12.925 30.411 30.411 0 0 1-6.081 10.214 28.1 28.1 0 0 1-9.456 6.77 29.8 29.8 0 0 1-12.276 2.462 29.365 29.365 0 0 1-12.218-2.462 28.257 28.257 0 0 1-9.399-6.77 30.34 30.34 0 0 1-6.08-10.214 37.557 37.557 0 0 1-2.129-12.925 34.077 34.077 0 0 1 2.148-12.194l.019.057Zm111 56.375h14.232l20.14-66.357h.25l20.216 66.357h14.731l25.28-87.149h-15.709l-17.071 62.78h-.249l-19.181-62.78h-15.229l-19.546 62.78h-.249l-16.323-62.78H293.96l25.721 87.149Z"/></svg>

<svg width="500" height="500" viewBox="0 0 500 500" fill="none" xmlns="http://www.w3.org/2000/svg"
  xmlns:xlink="http://www.w3.org/1999/xlink">
  <path
    d="M0 92.8571C0 41.5736 41.5736 0 92.8571 0H407.143C458.426 0 500 41.5736 500 92.8571V407.143C500 458.426 458.426 500 407.143 500H92.8571C41.5736 500 0 458.426 0 407.143V92.8571Z"
    fill="#2B2B36">
  </path>
  <path
    d="M124.055 188.95C122.083 186.565 119.597 184.658 116.786 183.373C114.117 182.168 111.234 181.514 108.308 181.449C105.073 181.344 101.85 181.893 98.8323 183.065C96.1207 184.131 93.6587 185.748 91.6011 187.816C89.589 189.863 88.033 192.314 87.0361 195.009C84.9481 200.894 84.9481 207.32 87.0361 213.205C88.0258 215.92 89.5821 218.392 91.6011 220.456C93.6565 222.526 96.1192 224.144 98.8323 225.207C101.85 226.378 105.073 226.927 108.308 226.822C111.234 226.757 114.117 226.103 116.786 224.899C119.598 223.614 122.083 221.707 124.055 219.321L119.087 215.474C117.963 217.149 116.466 218.538 114.714 219.533C112.768 220.658 110.553 221.23 108.308 221.187C105.991 221.288 103.68 220.881 101.537 219.994C99.6006 219.223 97.8488 218.049 96.3963 216.551C94.9539 214.961 93.8566 213.088 93.1739 211.05C91.7019 206.585 91.7019 201.763 93.1739 197.298C93.8595 195.267 94.9567 193.401 96.3963 191.816C97.8235 190.268 99.5627 189.042 101.498 188.219C103.642 187.333 105.953 186.927 108.269 187.027C110.515 186.984 112.73 187.556 114.676 188.681C116.427 189.676 117.924 191.066 119.049 192.74L124.017 188.893L124.055 188.95ZM138.594 225.784H144.675V203.626C144.54 200.437 145.199 197.264 146.593 194.394C147.597 192.44 149.026 190.738 150.774 189.412C152.068 188.399 153.567 187.684 155.166 187.315C156.03 187.164 156.9 187.062 157.775 187.008C162.251 187.008 165.32 188.29 166.982 190.855C168.842 194.223 169.706 198.052 169.475 201.895V225.784H175.556V198.356C175.851 193.839 174.441 189.376 171.604 185.854C168.932 182.981 164.834 181.545 159.31 181.545C157.863 181.549 156.425 181.75 155.032 182.142C153.605 182.532 152.228 183.087 150.928 183.796C149.661 184.49 148.488 185.343 147.437 186.335C146.427 187.28 145.561 188.369 144.866 189.566H144.675V155.983H138.594V225.784ZM223.949 204.28V207.415C223.959 209.246 223.694 211.068 223.163 212.82C222.677 214.46 221.84 215.975 220.711 217.257C219.581 218.539 218.185 219.559 216.622 220.244C214.805 221.024 212.843 221.404 210.868 221.36C209.641 221.358 208.418 221.216 207.223 220.937C206.063 220.673 204.959 220.204 203.963 219.552C202.995 218.917 202.193 218.06 201.623 217.051C201.01 215.934 200.705 214.672 200.74 213.397C200.697 212.432 200.878 211.471 201.271 210.589C201.664 209.707 202.258 208.93 203.004 208.319C204.602 207.038 206.452 206.107 208.432 205.588C210.601 204.992 212.824 204.618 215.068 204.472C217.37 204.318 219.288 204.241 220.823 204.241L223.949 204.28ZM220.918 199.298C218.361 199.298 215.522 199.42 212.402 199.664C209.414 199.911 206.473 200.558 203.656 201.587C201.05 202.491 198.71 204.031 196.846 206.069C194.923 208.378 193.949 211.335 194.123 214.339C194.078 216.248 194.507 218.138 195.37 219.84C196.18 221.384 197.312 222.735 198.688 223.803C200.1 224.898 201.708 225.714 203.426 226.207C205.22 226.733 207.08 226.999 208.95 226.995C212.021 227.077 215.066 226.417 217.83 225.072C220.462 223.611 222.644 221.456 224.141 218.84H224.333C224.333 220.007 224.377 221.206 224.467 222.437C224.556 223.668 224.703 224.784 224.908 225.784H230.662C230.483 224.617 230.317 223.123 230.164 221.302C230.01 219.481 229.959 217.769 230.01 216.167V196.933C230.069 194.591 229.631 192.263 228.725 190.104C227.934 188.297 226.77 186.678 225.311 185.354C223.854 184.07 222.14 183.113 220.285 182.545C218.337 181.929 216.306 181.617 214.263 181.622C206.156 181.622 200.082 183.712 196.041 187.893L199.724 192.239C203.299 188.92 208.009 187.102 212.882 187.162C220.247 187.162 223.93 190.887 223.93 198.337V199.452L220.918 199.298ZM250.188 182.584C250.316 184.187 250.425 185.879 250.515 187.662C250.604 189.444 250.649 190.919 250.649 192.086V225.784H256.729V203.626C256.595 200.437 257.254 197.264 258.647 194.394C259.651 192.44 261.08 190.738 262.829 189.412C264.122 188.399 265.622 187.684 267.221 187.315C268.07 187.146 268.928 187.024 269.791 186.95C274.267 186.95 277.336 188.232 278.998 190.797C280.858 194.165 281.723 197.994 281.492 201.837V225.784H287.572V198.356C287.867 193.839 286.457 189.376 283.621 185.854C280.974 182.981 276.888 181.545 271.364 181.545C269.918 181.549 268.479 181.75 267.087 182.142C265.66 182.532 264.282 183.087 262.982 183.796C261.699 184.468 260.506 185.302 259.434 186.277C258.424 187.222 257.558 188.311 256.863 189.508H256.672C256.672 188.341 256.672 187.187 256.672 186.046C256.672 184.905 256.595 183.751 256.441 182.584H250.188ZM314.042 197.221C314.841 195.266 315.999 193.478 317.456 191.951C318.902 190.442 320.62 189.221 322.519 188.354C324.5 187.449 326.654 186.989 328.83 187.008C331.168 186.976 333.488 187.435 335.639 188.354C337.585 189.189 339.34 190.413 340.799 191.951C342.217 193.471 343.314 195.264 344.021 197.221C344.771 199.279 345.147 201.454 345.134 203.645C345.227 205.977 344.835 208.302 343.983 210.473C343.19 212.448 341.98 214.227 340.434 215.686C337.315 218.618 333.202 220.254 328.926 220.263C326.749 220.283 324.595 219.823 322.615 218.917C320.716 218.051 318.997 216.83 317.552 215.32C316.094 213.794 314.936 212.006 314.137 210.05C312.481 205.935 312.481 201.336 314.137 197.221H314.042ZM307.175 239.248C309.743 242.066 312.882 244.302 316.382 245.806C320.039 247.273 323.952 247.992 327.89 247.922C331.932 248.084 335.958 247.328 339.667 245.71C342.412 244.439 344.823 242.542 346.707 240.171C348.365 238.022 349.531 235.533 350.121 232.881C350.684 230.426 350.98 227.918 351.003 225.399V182.584H344.923V189.777H344.731C342.63 186.854 339.78 184.555 336.483 183.122C335.093 182.525 333.638 182.093 332.148 181.834C330.793 181.597 329.42 181.475 328.044 181.468C325.03 181.436 322.041 182.019 319.259 183.18C316.656 184.272 314.306 185.889 312.354 187.931C310.398 189.993 308.849 192.408 307.789 195.048C306.672 197.835 306.111 200.815 306.139 203.818C306.112 206.831 306.706 209.817 307.884 212.589C308.996 215.212 310.627 217.581 312.68 219.552C314.745 221.52 317.167 223.074 319.815 224.13C322.609 225.246 325.592 225.808 328.6 225.784C331.68 225.773 334.724 225.118 337.538 223.86C340.489 222.517 342.982 220.338 344.712 217.59H344.904V225.284C344.915 227.513 344.618 229.733 344.021 231.881C343.487 233.883 342.517 235.742 341.182 237.324C339.762 238.937 337.981 240.189 335.984 240.979C333.489 241.935 330.83 242.393 328.159 242.325C324.835 242.378 321.546 241.633 318.568 240.152C315.834 238.801 313.455 236.825 311.625 234.381L307.175 239.248ZM375.574 200.779C375.577 198.98 376.004 197.208 376.82 195.605C377.653 193.943 378.777 192.445 380.139 191.182C381.552 189.867 383.189 188.819 384.972 188.085C386.794 187.317 388.751 186.924 390.727 186.931C392.619 186.819 394.513 187.103 396.29 187.765C398.067 188.428 399.686 189.453 401.046 190.778C402.279 192.122 403.234 193.698 403.856 195.415C404.479 197.131 404.755 198.955 404.671 200.779H375.574ZM411.288 205.761V203.068C411.304 200.227 410.837 197.404 409.907 194.721C409.04 192.199 407.676 189.877 405.899 187.893C404.095 185.905 401.901 184.314 399.454 183.219C396.696 182.017 393.714 181.42 390.707 181.468C387.769 181.445 384.857 182.027 382.153 183.18C379.558 184.285 377.21 185.901 375.248 187.931C373.257 190.002 371.692 192.447 370.644 195.125C369.522 198.004 368.962 201.073 368.995 204.165C368.965 207.261 369.545 210.333 370.702 213.205C371.775 215.878 373.351 218.321 375.344 220.398C377.339 222.45 379.736 224.067 382.383 225.149C385.201 226.303 388.22 226.885 391.264 226.861C394.708 226.888 398.118 226.166 401.257 224.745C404.614 223.12 407.534 220.713 409.773 217.725L405.074 213.878C403.69 215.998 401.848 217.78 399.684 219.09C397.155 220.647 394.23 221.436 391.264 221.36C389.208 221.381 387.171 220.975 385.279 220.167C381.579 218.581 378.618 215.646 376.993 211.954C376.125 210.027 375.593 207.965 375.42 205.857L411.288 205.761Z"
    fill="white">
  </path>
  <path
    d="M90.7576 341.188H106.217V274.35H106.467L149.432 341.188H169.073V254.039H153.594V318.781H153.364L111.166 254.039H90.7576V341.188ZM193.759 316.569C195.893 321.962 199.132 326.848 203.264 330.909C207.397 334.971 212.333 338.119 217.754 340.15C223.655 342.38 229.919 343.489 236.225 343.42C242.608 343.416 248.935 342.229 254.888 339.919C260.34 337.789 265.31 334.585 269.504 330.494C273.65 326.401 276.915 321.498 279.094 316.088C281.422 310.17 282.562 303.849 282.451 297.489C282.544 291.004 281.378 284.562 279.018 278.524C276.86 273.069 273.594 268.123 269.427 264.002C265.262 259.935 260.279 256.807 254.811 254.827C248.829 252.679 242.502 251.655 236.148 251.808C229.842 251.739 223.579 252.847 217.677 255.077C212.259 257.132 207.327 260.296 203.196 264.367C199.03 268.512 195.765 273.476 193.605 278.947C191.319 285.027 190.225 291.493 190.383 297.989C190.298 304.348 191.464 310.662 193.816 316.569H193.759ZM208.681 284.813C210.048 281.147 212.113 277.783 214.762 274.908C217.4 272.059 220.601 269.793 224.16 268.253C228.034 266.601 232.209 265.782 236.417 265.849C240.63 265.793 244.81 266.611 248.693 268.253C252.275 269.783 255.496 272.05 258.149 274.908C260.796 277.784 262.861 281.148 264.229 284.813C265.65 288.699 266.352 292.812 266.301 296.95C266.347 301.352 265.619 305.727 264.153 309.875C262.817 313.648 260.75 317.119 258.072 320.089C255.425 322.981 252.204 325.288 248.616 326.859C244.743 328.54 240.56 329.379 236.34 329.321C232.139 329.384 227.973 328.545 224.122 326.859C220.557 325.277 217.357 322.972 214.723 320.089C212.044 317.12 209.977 313.649 208.643 309.875C207.182 305.726 206.461 301.35 206.514 296.95C206.479 292.788 207.208 288.654 208.662 284.756L208.681 284.813ZM319.681 341.188H333.913L354.053 274.831H354.303L374.519 341.188H389.25L414.53 254.039H398.821L381.75 316.819H381.501L362.32 254.039H347.091L327.545 316.819H327.296L310.973 254.039H293.96L319.681 341.188Z"
    fill="#00C26F">
  </path>
</svg>
